X: 6
T:Day the Pub Burned Down, The
M:4/4
L:1/4
Q:120
K:A
A,|"A"A,>CEE|FE/2E/2-EE|EEFE|"E"GzzE|
E>EFE|BG/2E/2-EE|E>EFE|"A"CzzA,|
A,>CEE|FE/2E/2-EE|"A7"A<A B<A|"D"F3F|
A>ABA|"A"cAE>C|"E7"E>DCB,|"A"A,3||
